archdroid-icon-theme/Archdroid-Purple/apps/scalable/autokey-status-dark.svg

<?xml version="1.0" encoding="UTF-8" standalone="no"?>
<!-- Created with Inkscape (http://www.inkscape.org/) -->

<svg
   xmlns:dc="http://purl.org/dc/elements/1.1/"
   xmlns:cc="http://creativecommons.org/ns#"
   xmlns:rdf="http://www.w3.org/1999/02/22-rdf-syntax-ns#"
   xmlns:svg="http://www.w3.org/2000/svg"
   xmlns="http://www.w3.org/2000/svg"
   xmlns:sodipodi="http://sodipodi.sourceforge.net/DTD/sodipodi-0.dtd"
   xmlns:inkscape="http://www.inkscape.org/namespaces/inkscape"
   version="1.1"
   width="24"
   height="24"
   viewBox="0 0 24 24"
   id="svg2408"
   xml:space="preserve"
   inkscape:version="0.91 r13725"
   sodipodi:docname="autokey-status-dark.svg"><sodipodi:namedview
     pagecolor="#ffffff"
     bordercolor="#666666"
     borderopacity="1"
     objecttolerance="10"
     gridtolerance="10"
     guidetolerance="10"
     inkscape:pageopacity="0"
     inkscape:pageshadow="2"
     inkscape:window-width="1366"
     inkscape:window-height="713"
     id="namedview17"
     showgrid="false"
     inkscape:zoom="2.672022608783319"
     inkscape:cx="2.006660557345313"
     inkscape:cy="-18.64132983949015"
     inkscape:window-x="0"
     inkscape:window-y="30"
     inkscape:window-maximized="1"
     inkscape:current-layer="svg2408"
     inkscape:snap-bbox="true"
     inkscape:bbox-nodes="true"
     fit-margin-top="0"
     fit-margin-left="0"
     fit-margin-right="0"
     fit-margin-bottom="0" /><metadata
     id="metadata106"><rdf:RDF><cc:Work
         rdf:about=""><dc:format>image/svg+xml</dc:format><dc:type
           rdf:resource="http://purl.org/dc/dcmitype/StillImage" /><dc:title /></cc:Work></rdf:RDF></metadata><defs
     id="defs104" /><filter
     x="-0.1920000016689301"
     y="-0.1920000016689301"
     width="1.383999943733215"
     height="1.383999943733215"
     id="filter3794"
     style="color-interpolation-filters:sRGB"><feGaussianBlur
       stdDeviation="5.28"
       id="feGaussianBlur3796" /></filter><filter
     id="filter3218"
     style="color-interpolation-filters:sRGB"><feGaussianBlur
       stdDeviation="1.71"
       id="feGaussianBlur3220" /></filter><g
     transform="translate(-2,-70)"
     id="layer2"
     style="display:none"><g
       id="rect3745"
       style="display:inline;opacity:0.9;filter:url(#filter3218)"><linearGradient
         x1="37.86769866943359"
         y1="-22.71290016174316"
         x2="37.86769866943359"
         y2="62.78559875488281"
         id="SVGID_1_"
         gradientUnits="userSpaceOnUse"
         gradientTransform="matrix(1.0059,0,0,-0.9942,9.910399999999999,69.4184)"><stop
           id="stop10"
           style="stop-color:#000000;stop-opacity:1"
           offset="0" /><stop
           id="stop12"
           style="stop-color:#000000;stop-opacity:0.58819997"
           offset="1" /></linearGradient><path
         d="m 12,7 72,0 c 3.86599999999999,0 7,3.134 7,7 l 0,71 c 0,3.86599999999999 -3.13400000000001,7 -7,7 L 12,92 C 8.134,92 5,88.86599999999998 5,85 L 5,14 C 5,10.134 8.134,7 12,7 Z"
         id="path14"
         style="fill:url(#SVGID_1_)"
         inkscape:connector-curvature="0" /></g></g><path
     style="fill:#9C27B0;fill-opacity:1;stroke:none"
     d="M 5,3 C 3.892,3 3,3.892000000000001 3,5 l 0,14 c 0,1.108 0.892,2 2,2 l 14,0 c 1.108,0 2,-0.892 2,-2 L 21,5 C 21,3.892000000000001 20.108,3 19,3 L 5,3 Z"
     id="path4146" /><path
     style="fill:#000000;fill-opacity:1;stroke:none"
     d="M 11.75390625 4.974609375 C 11.71715625 4.984068375 11.685671875 5.010632875 11.669921875 5.044921875 L 5.71484375 17.892578125 C 5.677349750000001 17.968916125 5.740644875 18.07251875 5.826171875 18.07421875 L 7.935546875 18.07421875 C 7.982130875 18.07346875 8.028011125000001 18.04528625 8.048828125 18.00390625 L 9.3984375 15.0859375 L 13.71484375 15.0859375 L 14.20703125 17.96875 C 14.21722725 18.027318 14.274114375 18.07440275 14.333984375 18.07421875 L 16.82421875 18.07421875 C 16.89826075 18.07433774999999 16.96117875 18.000274375 16.94921875 17.927734375 L 14.671875 5.080078125 C 14.661678 5.021508425 14.604791875 4.974425575 14.544921875 4.974609375 L 11.78125 4.974609375 C 11.77192 4.973579375 11.76320625 4.973579375 11.75390625 4.974609375 z M 12.583984375 7.689453125 L 13.455078125 13.111328125 L 10.28515625 13.111328125 L 12.583984375 7.689453125 z "
     id="path4148" /></svg>

<svg xmlns="http://www.w3.org/2000/svg" viewBox="0 0 24 24"><defs><filter color-interpolation-filters="sRGB"><feGaussianBlur stdDeviation="1.71"/></filter><linearGradient y1="-22.713" x2="0" y2="62.786" gradientUnits="userSpaceOnUse" gradientTransform="matrix(1.0059 0 0-.9942 9.91 69.42)"><stop/><stop offset="1" stop-opacity=".588"/></linearGradient></defs><path d="m5 3c-1.108 0-2 .892-2 2v14c0 1.108.892 2 2 2h14c1.108 0 2-.892 2-2v-14c0-1.108-.892-2-2-2h-14" fill="#9C27B0"/><path d="m11.754 4.975c-.037.009-.068.036-.084.07l-5.955 12.848c-.037.076.026.18.111.182h2.109c.047-.001.092-.029.113-.07l1.35-2.918h4.316l.492 2.883c.01.059.067.106.127.105h2.49c.074 0 .137-.074.125-.146l-2.277-12.848c-.01-.059-.067-.106-.127-.105h-2.764c-.009-.001-.018-.001-.027 0m.83 2.715l.871 5.422h-3.17l2.299-5.422"/></svg>
